X: 14636
T: Gan Ainm
R: slip jig
M: 9/8
K: Gmajor
|:GBG AGE EDD|(3GAB G AGE c2A|BAG AGE EDE|GED DEF G2D:|
|:G{B}AG G (3ABc dBG|ABA A (3Bcd ecA|G{B}AG G (3ABc dBA|1 GED DEF GDD:|2 GED DEF G2D||

